X: 35936
T: Santorini Sunshine
R: reel
M: 4/4
K: Eminor
|:e3A BA A2|EA A2 G3d|e3A BA (3Bcd|edeg eaag|
e3A BA A2|EA A2 G3E|DE E2 G3B|AGED E4:|
|:de e2 geag|de e2 geag|ea a2 ba a2|g3a gedg|
e3A BA A2|EAAB G3E|DE E2 G3B|AGED E4:|

